images/icons/benefits-reliable.svg

<svg width="63" height="66" viewBox="0 0 63 66" fill="none" xmlns="http://www.w3.org/2000/svg">
<path d="M34.9531 0.98829C34.5898 1.00782 34.2656 1.22267 34.1054 1.5547L30.2577 9.25001C29.4374 9.45704 25.0351 10.6875 22.2031 16.1445L22.1757 16.1875L21.4296 18.0625C21.3124 18.0195 21.1874 18 21.0624 18C18.3359 18 15.914 19.3672 14.4531 21.4492L6.37103 32.1758L1.62884 34.0742C1.28119 34.1953 1.03119 34.4961 0.972593 34.8594C0.914 35.2227 1.06244 35.5859 1.3515 35.8086C1.64447 36.0352 2.03509 36.0781 2.37103 35.9258L7.37103 33.9258C7.539 33.8594 7.68744 33.7461 7.79681 33.6016L16.0742 22.625C16.082 22.6133 16.0859 22.6055 16.0937 22.5938C17.1171 21.1328 18.7617 20.1524 20.6484 20.0274L16.6874 29.9531L9.95306 37.2031L10.6601 37.8828C10.6601 37.8828 11.3945 38.5899 12.6288 39.7774C14.3867 41.4609 16.9921 41.6172 19.4765 40.9492C21.9609 40.2813 24.4492 38.7969 26.3281 36.8438C26.7773 36.3711 27.3671 35.5313 28.207 34.3281C29.0507 33.125 30.0624 31.6406 31.0351 30.1953C32.832 27.5274 34.2421 25.3828 34.496 25H56.9999C57.0038 25 57.0038 25 57.0077 25C59.2226 25.0039 60.9999 26.7813 60.9999 29C60.9999 31.2188 59.2187 33 56.9999 33H54.9999C54.4531 33.0078 54.0156 33.4531 54.0156 34C54.0156 34.5469 54.4531 34.9922 54.9999 35C57.2187 35 58.9999 36.7813 58.9999 39C58.9999 41.2188 57.2187 43 54.9999 43H53.9999C53.4531 43.0078 53.0156 43.4531 53.0156 44C53.0156 44.5469 53.4531 44.9922 53.9999 45C56.2187 45 57.9999 46.7813 57.9999 49C57.9999 50.9063 56.6757 52.4766 54.9023 52.8867C54.5195 52.9766 54.2226 53.2774 54.1484 53.6641C54.0702 54.0469 54.2226 54.4414 54.5429 54.6719C55.4257 55.3125 55.9999 56.3281 55.9999 57.5C55.9999 59.4453 54.4452 61 52.4999 61H46.9999V58C46.9999 55.25 44.7499 53 41.9999 53C40.3242 53 38.9101 53.8867 37.9999 55.1602C37.0898 53.8867 35.6757 53 33.9999 53C32.3242 53 30.9101 53.8867 29.9999 55.1602C29.0898 53.8867 27.6757 53 25.9999 53C24.3242 53 22.9101 53.8867 21.9999 55.1602C21.0898 53.8867 19.6757 53 17.9999 53C15.2499 53 12.9999 55.25 12.9999 58V61H1.99994C1.64056 60.9961 1.30462 61.1836 1.12103 61.4961C0.941342 61.8086 0.941342 62.1914 1.12103 62.5039C1.30462 62.8164 1.64056 63.0039 1.99994 63H13.4257C14.2031 64.7617 15.9609 66 17.9999 66C19.6757 66 21.0898 65.1133 21.9999 63.8399C22.9101 65.1133 24.3242 66 25.9999 66C27.6757 66 29.0898 65.1133 29.9999 63.8399C30.9101 65.1133 32.3242 66 33.9999 66C35.6757 66 37.0898 65.1133 37.9999 63.8399C38.9101 65.1133 40.3242 66 41.9999 66C44.039 66 45.7968 64.7617 46.5742 63H52.4999C55.5273 63 57.9999 60.5274 57.9999 57.5C57.9999 56.2422 57.4687 55.1758 56.7538 54.25C58.664 53.2461 59.9999 51.3008 59.9999 49C59.9999 47.0781 59.0273 45.4375 57.6093 44.3399C59.5976 43.3555 60.9999 41.3555 60.9999 39C60.9999 37.2422 60.2031 35.6953 58.9921 34.5938C61.3085 33.7656 62.9999 31.5977 62.9999 29C62.9999 26.1563 60.9999 23.7695 58.3359 23.1563L58.8085 21.7344C59.5585 19.4844 59.207 17.0703 58.0468 15.0156L59.9492 9.31642C60.0546 9.01173 60.0077 8.67579 59.8242 8.41017C59.6367 8.14454 59.3359 7.98829 59.0117 7.98438C58.5742 7.98438 58.1835 8.26563 58.0507 8.6836L55.6132 16H56.3359C57.2109 17.5586 57.4843 19.3945 56.9101 21.1055L56.2812 23H34.1367C33.7343 22.9336 33.332 23.1133 33.121 23.457C33.121 23.457 31.3163 26.1953 29.3749 29.0781C28.4062 30.5195 27.3984 31.9961 26.5702 33.1797C25.7421 34.3633 24.9999 35.3359 24.8867 35.457C23.2734 37.1328 21.0351 38.4609 18.957 39.0156C16.8828 39.5742 15.0898 39.3633 14.0156 38.332C13.2265 37.5742 13.0742 37.4258 12.7538 37.1211L18.4062 31.043L23.9843 17.0547C26.7031 11.8359 31.1952 10.9805 31.1952 10.9805L31.6757 10.8867L35.8945 2.44532C36.0585 2.12892 36.0429 1.7461 35.8476 1.44532C35.6523 1.14454 35.3124 0.968759 34.9531 0.98829ZM48.9999 11C48.4492 11 47.9999 11.4492 47.9999 12C47.9999 12.5508 48.4492 13 48.9999 13C49.5507 13 49.9999 12.5508 49.9999 12C49.9999 11.4492 49.5507 11 48.9999 11ZM52.9999 12C52.4492 12 51.9999 12.4492 51.9999 13C51.9999 13.5508 52.4492 14 52.9999 14C53.5507 14 53.9999 13.5508 53.9999 13C53.9999 12.4492 53.5507 12 52.9999 12ZM46.9999 33C46.4492 33 45.9999 33.4492 45.9999 34C45.9999 34.5508 46.4492 35 46.9999 35C47.5507 35 47.9999 34.5508 47.9999 34C47.9999 33.4492 47.5507 33 46.9999 33ZM50.9999 33C50.4492 33 49.9999 33.4492 49.9999 34C49.9999 34.5508 50.4492 35 50.9999 35C51.5507 35 51.9999 34.5508 51.9999 34C51.9999 33.4492 51.5507 33 50.9999 33ZM49.9999 43C49.4492 43 48.9999 43.4492 48.9999 44C48.9999 44.5508 49.4492 45 49.9999 45C50.5507 45 50.9999 44.5508 50.9999 44C50.9999 43.4492 50.5507 43 49.9999 43ZM50.9999 53C50.4492 53 49.9999 53.4492 49.9999 54C49.9999 54.5508 50.4492 55 50.9999 55C51.5507 55 51.9999 54.5508 51.9999 54C51.9999 53.4492 51.5507 53 50.9999 53ZM17.9999 55C19.6679 55 20.9999 56.332 20.9999 58C21.0077 58.5469 21.4531 58.9844 21.9999 58.9844C22.5468 58.9844 22.9921 58.5469 22.9999 58C22.9999 56.332 24.332 55 25.9999 55C27.6679 55 28.9999 56.332 28.9999 58C28.9999 58.0352 29.0038 58.0664 29.0038 58.0977C29.0117 58.1641 29.0273 58.2305 29.0468 58.2969C29.0702 58.3594 29.0976 58.4219 29.1288 58.4805C29.1601 58.5352 29.1992 58.5899 29.246 58.6406C29.3554 58.7695 29.4921 58.8633 29.6523 58.9219C29.7148 58.9453 29.7773 58.9649 29.8437 58.9727C29.8749 58.9805 29.9101 58.9844 29.9413 58.9844C30.0117 58.9883 30.0781 58.9844 30.1406 58.9766C30.1757 58.9727 30.207 58.9649 30.2382 58.957C30.3046 58.9414 30.3671 58.918 30.4296 58.8906C30.4609 58.875 30.4882 58.8594 30.5156 58.8438C30.6015 58.7891 30.6796 58.7266 30.746 58.6524C30.789 58.6016 30.8281 58.5469 30.8632 58.4883C30.9296 58.375 30.9765 58.2461 30.9921 58.1133C30.996 58.0742 30.9999 58.0391 30.9999 58C30.9999 56.332 32.332 55 33.9999 55C35.6679 55 36.9999 56.332 36.9999 58C36.9999 58.0352 37.0038 58.0664 37.0038 58.0977C37.0117 58.1328 37.0156 58.168 37.0234 58.1992C37.082 58.4649 37.2421 58.6914 37.4687 58.8359C37.4999 58.8516 37.5273 58.8672 37.5585 58.8828C37.5898 58.8984 37.6171 58.9102 37.6523 58.9219C37.7148 58.9453 37.7773 58.9649 37.8437 58.9727C37.8749 58.9805 37.9101 58.9844 37.9413 58.9844C37.9765 58.9844 38.0117 58.9844 38.0429 58.9844C38.1093 58.9805 38.1757 58.9727 38.2382 58.957C38.3046 58.9414 38.3671 58.918 38.4296 58.8906C38.4882 58.8594 38.5468 58.8242 38.5976 58.7852C38.6249 58.7656 38.6523 58.7461 38.6757 58.7227C38.7773 58.6328 38.8554 58.5234 38.9101 58.4024C38.9257 58.3711 38.9374 58.3399 38.9492 58.3086C38.957 58.2734 38.9687 58.2422 38.9726 58.2109C38.9804 58.1797 38.9882 58.1445 38.9921 58.1133C38.996 58.0742 38.9999 58.0391 38.9999 58C38.9999 56.332 40.332 55 41.9999 55C43.6679 55 44.9999 56.332 44.9999 58V61C44.9999 62.668 43.6679 64 41.9999 64C40.332 64 38.9999 62.668 38.9999 61C38.9999 60.9649 38.996 60.9336 38.996 60.9024C38.9882 60.8359 38.9726 60.7695 38.9531 60.7031C38.9296 60.6406 38.9023 60.5781 38.871 60.5195C38.8398 60.4649 38.8007 60.4102 38.7538 60.3594C38.6913 60.2852 38.6132 60.2188 38.5312 60.1641C38.4999 60.1484 38.4726 60.1328 38.4413 60.1172C38.4101 60.1016 38.3827 60.0899 38.3476 60.0781C38.3163 60.0664 38.2851 60.0547 38.2538 60.0469C38.1562 60.0234 38.0585 60.0117 37.957 60.0156C37.8906 60.0195 37.8242 60.0274 37.7617 60.043C37.7265 60.0508 37.6952 60.0625 37.664 60.0742C37.6327 60.082 37.6015 60.0977 37.5702 60.1094C37.4804 60.1524 37.3945 60.2109 37.3242 60.2774C37.2499 60.3477 37.1874 60.4258 37.1367 60.5117C37.121 60.5391 37.1054 60.5703 37.0898 60.5977C37.0742 60.6289 37.0624 60.6602 37.0507 60.6914C37.0429 60.7266 37.0312 60.7578 37.0273 60.7891C37.0117 60.8555 36.9999 60.918 36.9999 60.9844C36.9999 60.9922 36.9999 60.9961 36.9999 61C36.9999 62.668 35.6679 64 33.9999 64C32.332 64 30.9999 62.668 30.9999 61C30.9999 60.9649 30.996 60.9336 30.996 60.9024C30.9882 60.8672 30.9843 60.832 30.9765 60.8008C30.9609 60.7344 30.9413 60.6719 30.9179 60.6094C30.8359 60.4258 30.6992 60.2695 30.5312 60.1641C30.2695 60.0039 29.9531 59.9688 29.664 60.0742C29.6015 60.0938 29.539 60.125 29.4843 60.1563C29.4257 60.1914 29.371 60.2305 29.3242 60.2774C29.2734 60.3242 29.2304 60.375 29.1874 60.4258C29.1718 60.4531 29.1523 60.4844 29.1367 60.5117C29.121 60.5391 29.1054 60.5703 29.0898 60.5977C29.0624 60.6602 29.039 60.7227 29.0273 60.7891C29.0117 60.8555 28.9999 60.918 28.9999 60.9844C28.9999 60.9922 28.9999 60.9961 28.9999 61C28.9999 62.668 27.6679 64 25.9999 64C24.332 64 22.9999 62.668 22.9999 61C22.9921 60.4531 22.5468 60.0156 21.9999 60.0156C21.4531 60.0156 21.0077 60.4531 20.9999 61C20.9999 62.668 19.6679 64 17.9999 64C16.332 64 14.9999 62.668 14.9999 61V58C14.9999 56.332 16.332 55 17.9999 55Z" fill="#E4B564"/>
</svg>

<svg width="63" height="66" fill="none" xmlns="http://www.w3.org/2000/svg"><path d="M34.953.988a1 1 0 00-.848.567L30.258 9.25c-.82.207-5.223 1.438-8.055 6.895l-.027.043-.746 1.875a1.067 1.067 0 00-.368-.063 8.074 8.074 0 00-6.609 3.45L6.371 32.175l-4.742 1.898a.996.996 0 00-.278 1.735.992.992 0 001.02.117l5-2a.996.996 0 00.426-.324l8.277-10.977.02-.031a6.035 6.035 0 014.554-2.567l-3.96 9.926-6.735 7.25.707.68 1.969 1.894c1.758 1.684 4.363 1.84 6.848 1.172 2.484-.668 4.972-2.152 6.851-4.105.45-.473 1.04-1.313 1.879-2.516a275.255 275.255 0 002.828-4.133c1.797-2.668 3.207-4.812 3.461-5.195h22.512A3.986 3.986 0 0161 29c0 2.219-1.781 4-4 4h-2a.999.999 0 00-.984 1c0 .547.437.992.984 1 2.219 0 4 1.781 4 4 0 2.219-1.781 4-4 4h-1a.999.999 0 00-.984 1c0 .547.437.992.984 1 2.219 0 4 1.781 4 4a3.985 3.985 0 01-3.098 3.887.993.993 0 00-.754.777.995.995 0 00.395 1.008A3.473 3.473 0 0156 57.5c0 1.945-1.555 3.5-3.5 3.5H47v-3c0-2.75-2.25-5-5-5-1.676 0-3.09.887-4 2.16-.91-1.273-2.324-2.16-4-2.16-1.676 0-3.09.887-4 2.16-.91-1.273-2.324-2.16-4-2.16-1.676 0-3.09.887-4 2.16-.91-1.273-2.324-2.16-4-2.16-2.75 0-5 2.25-5 5v3H2a1.006 1.006 0 00-.879.496 1.01 1.01 0 000 1.008c.184.312.52.5.879.496h11.426c.777 1.762 2.535 3 4.574 3 1.676 0 3.09-.887 4-2.16.91 1.273 2.324 2.16 4 2.16 1.676 0 3.09-.887 4-2.16.91 1.273 2.324 2.16 4 2.16 1.676 0 3.09-.887 4-2.16.91 1.273 2.324 2.16 4 2.16 2.039 0 3.797-1.238 4.574-3H52.5c3.027 0 5.5-2.473 5.5-5.5 0-1.258-.531-2.324-1.246-3.25C58.664 53.246 60 51.3 60 49c0-1.922-.973-3.563-2.39-4.66C59.597 43.355 61 41.355 61 39c0-1.758-.797-3.305-2.008-4.406C61.31 33.766 63 31.598 63 29c0-2.844-2-5.23-4.664-5.844l.473-1.422c.75-2.25.398-4.664-.762-6.718l1.902-5.7c.106-.304.059-.64-.125-.906a1.005 1.005 0 00-.812-.426c-.438 0-.828.282-.961.7L55.613 16h.723c.875 1.559 1.148 3.395.574 5.105L56.281 23H34.137a.999.999 0 00-1.016.457s-1.805 2.738-3.746 5.621a278.069 278.069 0 01-2.805 4.102c-.828 1.183-1.57 2.156-1.683 2.277-1.614 1.676-3.852 3.004-5.93 3.559-2.074.558-3.867.347-4.941-.684-.79-.758-.942-.906-1.262-1.21l5.652-6.079 5.578-13.988c2.72-5.22 7.211-6.075 7.211-6.075l.48-.093 4.22-8.442a.996.996 0 00-.047-1 1.002 1.002 0 00-.895-.457zM49 11c-.55 0-1 .45-1 1s.45 1 1 1 1-.45 1-1-.45-1-1-1zm4 1c-.55 0-1 .45-1 1s.45 1 1 1 1-.45 1-1-.45-1-1-1zm-6 21c-.55 0-1 .45-1 1s.45 1 1 1 1-.45 1-1-.45-1-1-1zm4 0c-.55 0-1 .45-1 1s.45 1 1 1 1-.45 1-1-.45-1-1-1zm-1 10c-.55 0-1 .45-1 1s.45 1 1 1 1-.45 1-1-.45-1-1-1zm1 10c-.55 0-1 .45-1 1s.45 1 1 1 1-.45 1-1-.45-1-1-1zm-33 2c1.668 0 3 1.332 3 3a.999.999 0 001 .984.999.999 0 001-.984c0-1.668 1.332-3 3-3s3 1.332 3 3c0 .035.004.066.004.098.008.066.023.133.043.199a.894.894 0 00.199.344.95.95 0 00.406.28.816.816 0 00.192.052 1.106 1.106 0 00.395-.016c.066-.016.128-.039.19-.066.032-.016.06-.032.087-.047.086-.055.164-.117.23-.192.043-.05.082-.105.117-.164a.974.974 0 00.13-.375c.003-.039.007-.074.007-.113 0-1.668 1.332-3 3-3s3 1.332 3 3c0 .035.004.066.004.098.008.035.012.07.02.101.058.266.218.492.445.637l.09.047a.676.676 0 00.093.039.816.816 0 00.192.05.417.417 0 00.097.012h.102a1.062 1.062 0 00.387-.093c.058-.032.117-.067.168-.106.027-.02.054-.039.078-.062.101-.09.18-.2.234-.32.016-.032.027-.063.04-.094.007-.036.019-.067.023-.098a.864.864 0 00.02-.098c.003-.039.007-.074.007-.113 0-1.668 1.332-3 3-3s3 1.332 3 3v3c0 1.668-1.332 3-3 3s-3-1.332-3-3c0-.035-.004-.066-.004-.098a1.211 1.211 0 00-.043-.199 1.55 1.55 0 00-.082-.184.882.882 0 00-.117-.16 1.067 1.067 0 00-.223-.195l-.09-.047a.687.687 0 00-.093-.039.937.937 0 00-.094-.031 1.079 1.079 0 00-.297-.031 1.071 1.071 0 00-.195.027.712.712 0 00-.098.031c-.031.008-.063.024-.094.035a.979.979 0 00-.246.168 1.07 1.07 0 00-.187.235c-.016.027-.032.058-.047.086a.955.955 0 00-.04.093c-.007.036-.019.067-.023.098a.842.842 0 00-.027.195V61c0 1.668-1.332 3-3 3s-3-1.332-3-3c0-.035-.004-.066-.004-.098-.008-.035-.012-.07-.02-.101a1.555 1.555 0 00-.058-.192.999.999 0 00-1.254-.535.94.94 0 00-.34.203c-.05.047-.094.098-.137.149-.015.027-.035.058-.05.086-.016.027-.032.058-.047.086a.84.84 0 00-.063.191.842.842 0 00-.027.195V61c0 1.668-1.332 3-3 3s-3-1.332-3-3a.999.999 0 00-1-.984.999.999 0 00-1 .984c0 1.668-1.332 3-3 3s-3-1.332-3-3v-3c0-1.668 1.332-3 3-3z" fill="#E4B564"/></svg>
